X: 1
T: Forked Deer
O: J.Taylor, Civil War Collection
R: waltz
Z: 2020 John Chambers <jc:trillian.mit.edu>
S: https://www.facebook.com/groups/Fiddletuneoftheday/ 2020-7-14
S: https://www.facebook.com/groups/Fiddletuneoftheday/photos/
M: C|
L: 1/8
K: D
|:"D"defg a2a2 | "G"gfga "A"gfec | "D"defg    a2af | "A"gfed  cABc |
| "D"defg a2a2 | "G"gaba "A"gfec | "D"dcde "G"dBAG | "A"FDEF "D"D4 :|
|:"A"A2A2 Bc2B |    ABcB    AFEF |    A2AB    c2Bc | "D"dBAF    D4 |
| "A"A2AB c2Bc | "D"d2de    dBAG | "A"FEDF "G"G2AG | "A"FDEF "D"D4 :|
